build/img/icon-q_adventures.svg

<svg width="36" height="30" viewBox="0 0 36 30" fill="none" xmlns="http://www.w3.org/2000/svg">
<path fill-rule="evenodd" clip-rule="evenodd" d="M35.9414 6.48431C35.8032 6.00477 35.4515 5.73036 35.0825 5.47192C34.6548 5.23283 34.3701 4.86095 33.9003 4.66092C33.6771 4.38312 33.1162 4.21976 32.934 4.05437C32.8437 3.97184 32.8437 4.02415 32.7191 3.95317C32.2943 3.70966 31.9167 3.39382 31.4311 3.24405C30.7561 2.63173 29.9191 2.17291 29.1771 1.62375C28.7383 1.43017 28.338 1.19991 27.9964 0.915658C27.5467 0.695928 27.4222 0.173601 26.8149 0.10432C26.8073 0.0428499 26.7983 -0.0148844 26.7079 0.00345475C26.5625 0.0350389 26.5017 0.147111 26.2785 0.10432C25.471 0.559063 24.9 1.23523 24.1311 1.72462C23.1922 2.29143 22.2548 2.85825 21.3408 3.4468C20.8566 3.70083 20.4995 4.07169 19.9447 4.25712C19.8159 4.50708 19.575 4.65345 19.2996 4.76314C19.0707 4.86571 18.9004 5.28615 18.656 5.06676C17.3071 4.51658 16.2318 3.70695 15.006 3.04198C14.5261 2.58214 13.7118 2.43985 13.1797 2.02891C12.4093 1.81054 11.892 1.3541 10.9258 1.31946C10.2404 1.27972 9.9423 1.60881 9.31519 1.62409C6.60767 3.32318 3.31768 4.47413 0.51369 6.08119C0.367892 6.44967 0.374372 6.96248 0.0831371 7.19478C-0.0608606 8.78349 0.0111383 10.4418 0.0831371 12.0564C0.286174 16.6116 -0.276137 21.8267 0.405332 26.5382C0.466891 27.3244 0.276094 28.349 0.51405 28.9695C0.54213 29.178 0.799525 29.1722 0.942443 29.2731C1.20848 29.1413 1.46299 29.4996 1.47847 29.2731C1.72363 29.5482 1.67179 30.1045 2.33742 29.9829C3.01961 30.0854 3.15965 29.6769 3.51928 29.4752C3.8512 29.248 4.13667 28.979 4.37787 28.6665C5.06258 28.2315 5.57269 27.6331 6.20196 27.1464C6.80639 26.6363 7.39606 26.1116 8.02893 25.6273C8.35148 25.3927 8.69564 25.1767 8.99443 24.9189C9.43002 24.7902 9.61686 24.4241 10.0679 24.31C11.5525 25.0024 12.7974 25.9204 14.255 26.6401C14.9455 27.0344 15.6424 27.4242 16.1864 27.9567C16.6051 28.0688 16.9636 28.2362 17.2595 28.4617C17.5753 28.4363 17.5904 28.6917 17.905 28.6659C17.8557 28.982 18.134 28.9885 18.4396 28.9691C19.2636 28.6642 19.8843 28.1697 20.4815 27.6525C21.1597 27.2133 21.843 26.7779 22.4132 26.2346C23.2516 25.9445 23.635 25.2269 24.4533 24.9189C24.6938 24.6037 25.1751 24.5192 25.4192 24.2088C25.7968 24.0254 26.0416 23.7173 26.4927 23.6015C27.9434 24.4947 28.9511 25.8056 30.251 26.8425C30.6229 27.031 30.746 27.4528 31.2161 27.5512C31.5074 27.8504 31.7129 28.2312 32.1827 28.3616C32.5341 28.6034 32.5434 29.1685 33.149 29.1719C33.5532 29.3638 33.6407 29.8562 34.3301 29.7794C34.7473 29.5889 34.8748 29.2646 34.9741 28.7664C35.0782 28.2447 34.8953 27.6718 34.9741 27.1461C35.1473 26.7695 35.323 26.3945 35.404 25.9306C35.9756 21.4395 35.5865 16.0444 35.8331 11.245C36.0267 10.5638 35.9349 9.64442 35.9414 8.8144C35.945 7.96061 36.0714 7.11429 35.9414 6.48431ZM2.33742 28.3612C2.28234 28.3082 2.41626 28.2315 2.44578 28.2607C2.5005 28.312 2.36802 28.3891 2.33742 28.3612ZM33.6861 11.6502C33.4197 16.1861 33.7206 21.3546 33.4704 26.0318C32.0398 25.4579 31.0023 24.5127 29.7132 23.8033C28.3132 23.2331 27.4837 22.1262 25.9556 21.6766C25.0502 21.8342 24.6185 22.4407 23.9162 22.7899C23.391 23.2735 22.6735 23.5761 22.2001 24.1072C20.8987 24.8724 19.8205 25.8464 18.6563 26.7402C18.2423 26.6594 18.179 26.2454 17.9054 26.0318C17.7099 25.7428 17.2937 25.662 17.1533 25.3234C16.2994 24.9793 15.7375 24.3626 14.7914 24.1076C13.976 23.7285 13.2031 23.3101 12.3211 22.9933C12.0742 22.6876 11.6494 22.547 11.4633 22.1826C11.1278 21.9931 10.8714 21.7282 10.389 21.6769C9.68166 21.6155 9.25111 21.8179 8.88679 22.0818C8.70176 22.4808 8.10633 22.4934 7.92093 22.8924C7.53502 23.1003 7.3417 23.4932 6.95362 23.7024C6.66239 24.0013 6.45755 24.3813 5.98812 24.5127C5.45497 25.1583 4.73282 25.6236 4.26987 26.3347C3.92175 26.5806 3.70756 26.9528 3.4102 27.2463C3.33856 27.482 3.05561 27.5186 2.98325 27.753C2.85725 27.7825 2.67221 28.3273 2.65962 27.8559C2.96993 27.4572 2.53002 26.9009 2.5527 26.437C2.4393 20.1986 2.24094 14.0377 1.90939 8.00442C1.88599 7.67873 2.29134 7.75786 2.44578 7.5996C2.60634 7.48108 2.88461 7.4736 2.98325 7.29531C3.44332 7.15573 3.6892 6.81407 4.16259 6.68774C4.93694 6.26865 5.60329 5.75074 6.41723 5.37139C7.1203 4.88642 8.07717 4.64156 8.77951 4.15558C9.32131 4.09377 9.44658 3.638 10.0683 3.64989C10.4196 3.44137 10.7426 3.205 11.1422 3.04232C12.2297 3.80441 13.467 4.42659 14.5772 5.1683C15.1244 5.56328 15.79 5.84753 16.2951 6.28224C16.9276 6.56242 17.2912 7.09799 18.0126 7.29497C19.0357 7.1795 19.7248 6.74921 20.3738 6.28224C21.0488 5.83802 21.7767 5.44509 22.4143 4.96623C23.8424 4.1875 24.99 3.14149 26.3861 2.33321C26.4653 2.23845 26.5805 2.17868 26.709 2.12944C27.3541 2.63512 27.9089 3.22537 28.7477 3.54767C29.4684 3.98305 30.1772 4.42761 31.003 4.7628C31.3911 5.27392 31.9653 5.61014 32.506 5.97862C32.961 6.39329 33.4337 6.78996 34.009 7.09256C33.9071 8.5641 33.7771 10.0886 33.6861 11.6502ZM27.7811 9.11835C27.1817 8.53625 27.0377 7.52556 26.2788 7.09256C25.6294 7.0878 25.5369 7.60877 25.4192 8.10529C25.4865 8.78417 25.8774 9.15809 26.0628 9.7266C25.4638 9.97011 24.7827 10.1382 23.9158 10.1314C23.639 10.4785 23.0223 10.5033 23.0569 11.1435C23.2192 11.3306 23.2941 11.4702 23.5951 11.5486C23.8795 11.6237 24.3338 11.4923 24.6671 11.5486C25.3364 11.3697 25.9721 11.1591 26.7079 11.0426C27.2177 11.4386 27.4322 12.1131 27.7807 12.6629C28.1803 13.1638 28.2682 13.9589 29.391 13.7768C29.5173 13.5911 29.6721 13.4342 29.8204 13.2708C29.6394 12.1589 28.9122 11.5615 28.5324 10.6374C29.1231 10.5865 29.49 10.3247 30.0361 10.2323C30.539 10.1009 31.0012 9.92731 31.0019 9.3211C30.6438 7.93106 28.8096 9.05315 27.7811 9.11835ZM25.8494 11.4478C25.4116 11.9263 24.2362 12.2031 24.6675 13.1686C25.1801 13.4213 25.4602 12.9278 25.8494 12.7634C26.1586 12.4816 26.6305 12.3532 26.493 11.6498C26.268 11.5918 26.1867 11.3992 25.8494 11.4478ZM11.8931 11.5486C11.2242 11.9501 9.68166 12.4286 10.3887 13.4736C11.0763 13.514 11.3834 13.1947 11.6785 12.866C12.1843 12.7352 12.3939 12.3257 12.5368 11.8526C12.3633 11.7123 12.2733 11.494 11.8931 11.5486ZM14.7914 13.9792C14.7684 13.7327 14.498 13.5225 14.3616 13.372C14.1917 13.1849 14.0491 12.8775 13.7176 12.8663C13.3504 12.8218 13.3946 13.1689 13.1804 13.2712C13.2452 13.8176 13.6412 14.0523 13.8259 14.4863C14.1726 14.8008 14.2745 15.3445 14.8983 15.3978C14.9221 15.3183 14.9883 15.2803 15.1143 15.297C15.493 14.9101 15.1467 14.2489 14.7914 13.9792ZM22.2001 14.5872C22.1328 14.9638 21.7595 15.0507 21.8772 15.5999C21.9974 15.6209 22.0442 15.7116 22.0917 15.8026C22.6062 16.0108 23.0284 15.5476 23.3805 15.2963C23.7657 14.9842 24.1999 14.7196 24.238 14.0811C23.5965 13.3238 22.6868 14.2628 22.2001 14.5872ZM8.56496 14.182C7.98501 14.6486 7.10266 14.8283 7.0609 15.8026C7.47922 16.2686 8.10237 15.7979 8.45768 15.5999C8.72156 15.2087 9.19711 15.0151 9.20899 14.3841C9.01783 14.2948 8.93611 14.1012 8.56496 14.182ZM21.0179 16.2075C20.8166 16.127 20.6258 16.038 20.3731 16.0054C20.3562 16.1226 20.2043 16.1151 20.0517 16.1063C19.6672 16.4428 19.1387 16.776 18.7632 17.0178C18.7265 17.0422 18.6858 17.1849 18.6563 17.2205C18.6275 17.2531 18.4709 17.1866 18.44 17.2205C18.4 17.2687 18.3514 17.4844 18.3345 17.5238C18.2798 17.6539 18.197 17.7238 18.2279 17.929C18.5703 18.6388 19.5653 18.2068 19.9455 17.8284C20.3314 17.3492 21.163 17.2888 21.1244 16.4105C21.0416 16.3875 21.001 16.3256 21.0179 16.2075ZM5.02154 17.5238C5.23537 17.6257 5.19181 17.9718 5.55865 17.929C6.144 17.7398 6.61091 17.4375 6.63215 16.7138C5.9892 16.2 5.01686 16.7865 5.02154 17.5238ZM15.866 16.5114H15.6507C15.5272 16.6313 15.5287 16.87 15.5427 17.1186C15.8775 17.626 16.4942 18.5572 17.2599 18.0298C17.3938 17.4311 17.0255 17.3071 16.8308 17.0181C16.4611 16.8948 16.4719 16.4112 15.866 16.5114Z" fill="white"/>
</svg>

<svg width="36" height="30" fill="none" xmlns="http://www.w3.org/2000/svg"><path fill-rule="evenodd" clip-rule="evenodd" d="M35.941 6.484c-.138-.48-.49-.754-.858-1.012-.428-.24-.713-.611-1.183-.811-.223-.278-.784-.441-.966-.607-.09-.082-.09-.03-.215-.1-.425-.244-.802-.56-1.288-.71-.675-.612-1.512-1.071-2.254-1.62a4.968 4.968 0 01-1.18-.708c-.45-.22-.575-.742-1.182-.812-.008-.061-.017-.119-.107-.1-.145.031-.206.143-.43.1-.807.455-1.378 1.131-2.147 1.62-.939.567-1.876 1.134-2.79 1.723-.484.254-.841.625-1.396.81-.13.25-.37.396-.645.506-.23.103-.4.523-.644.304-1.349-.55-2.424-1.36-3.65-2.025-.48-.46-1.294-.602-1.826-1.013-.77-.218-1.288-.675-2.254-.71-.686-.04-.984.29-1.61.305-2.708 1.7-5.998 2.85-8.802 4.457-.146.369-.14.881-.43 1.114-.145 1.588-.073 3.247 0 4.861.202 4.556-.36 9.77.321 14.482.062.786-.129 1.811.109 2.431.028.209.286.203.428.304.266-.132.521.227.536 0 .246.275.194.832.86.71.682.102.822-.306 1.181-.508.332-.227.618-.496.859-.809.685-.434 1.195-1.033 1.824-1.52.604-.51 1.194-1.034 1.827-1.519.322-.234.667-.45.965-.708.436-.129.623-.495 1.074-.609 1.485.692 2.73 1.61 4.187 2.33.69.394 1.387.784 1.931 1.317.42.112.778.28 1.073.505.316-.026.331.23.646.204-.05.316.229.322.535.303.824-.305 1.444-.8 2.041-1.317.679-.439 1.362-.874 1.932-1.417.839-.29 1.222-1.008 2.04-1.316.24-.315.722-.4.966-.71.378-.184.623-.492 1.074-.607 1.45.893 2.458 2.204 3.758 3.24.372.189.495.61.965.71.291.298.497.68.967.81.351.241.36.807.966.81.404.192.492.684 1.181.607.417-.19.545-.514.644-1.013.104-.521-.079-1.094 0-1.62.173-.377.349-.752.43-1.215.572-4.492.182-9.887.43-14.686.193-.681.1-1.6.107-2.43.004-.854.13-1.7 0-2.33zM2.337 28.361c-.055-.053.08-.13.109-.1.054.051-.078.128-.109.1zm31.35-16.71c-.267 4.535.034 9.704-.217 14.38-1.43-.573-2.468-1.518-3.757-2.228-1.4-.57-2.23-1.677-3.757-2.126-.906.157-1.337.764-2.04 1.113-.525.483-1.242.786-1.716 1.317-1.301.765-2.38 1.74-3.544 2.633-.414-.08-.477-.495-.75-.708-.196-.29-.612-.37-.753-.709-.854-.344-1.415-.96-2.362-1.215-.815-.38-1.588-.798-2.47-1.115-.247-.305-.672-.446-.858-.81-.335-.19-.592-.455-1.074-.506-.707-.061-1.138.14-1.502.405-.185.399-.78.411-.966.81-.386.208-.58.601-.967.81-.292.3-.496.68-.966.81-.533.646-1.255 1.112-1.718 1.823-.348.246-.562.618-.86.911-.071.236-.354.273-.427.507-.126.03-.31.574-.323.103.31-.399-.13-.955-.107-1.419-.114-6.238-.312-12.4-.644-18.433-.023-.325.382-.246.537-.404.16-.119.439-.126.537-.305.46-.14.706-.48 1.18-.607.774-.42 1.44-.937 2.254-1.317.703-.485 1.66-.73 2.363-1.215.541-.062.667-.518 1.288-.506.352-.209.675-.445 1.074-.608 1.088.762 2.325 1.385 3.435 2.126.547.395 1.213.68 1.718 1.114.633.28.996.816 1.718 1.013 1.023-.115 1.712-.546 2.36-1.013.676-.444 1.404-.837 2.041-1.316 1.428-.779 2.576-1.825 3.972-2.633a.761.761 0 01.323-.204c.645.506 1.2 1.096 2.039 1.419.72.435 1.43.88 2.255 1.215.388.51.962.847 1.503 1.216.455.414.928.811 1.503 1.114-.102 1.471-.232 2.996-.323 4.557zM27.78 9.117c-.6-.582-.743-1.592-1.502-2.025-.65-.005-.742.516-.86 1.012.067.68.458 1.053.644 1.622a5.409 5.409 0 01-2.147.404c-.277.348-.894.372-.86 1.012.163.188.238.327.54.406.284.075.738-.057 1.071 0 .67-.18 1.305-.39 2.04-.506.51.396.725 1.07 1.074 1.62.4.5.487 1.296 1.61 1.114.126-.186.281-.343.43-.506-.182-1.112-.909-1.71-1.289-2.634.591-.05.958-.312 1.504-.405.503-.131.965-.305.966-.91-.358-1.39-2.192-.269-3.22-.204zm-1.932 2.33c-.437.478-1.613.755-1.181 1.72.512.253.792-.24 1.181-.405.31-.281.782-.41.644-1.113-.225-.058-.306-.25-.644-.202zm-13.956.1c-.669.402-2.211.88-1.504 1.926.687.04.994-.28 1.29-.608.505-.13.715-.54.858-1.013-.174-.14-.264-.359-.644-.304zm2.898 2.431c-.023-.246-.293-.456-.43-.607-.17-.187-.312-.495-.643-.506-.368-.044-.323.303-.538.405.065.547.461.781.646 1.215.347.315.448.858 1.072.912.024-.08.09-.118.216-.101.379-.387.033-1.048-.323-1.318zm7.41.608c-.068.377-.442.464-.324 1.013.12.02.167.112.215.203.514.208.936-.255 1.289-.507.385-.312.819-.576.857-1.215-.642-.757-1.551.182-2.038.506zm-13.636-.405c-.58.467-1.462.646-1.504 1.62.418.467 1.041-.004 1.397-.202.264-.391.74-.585.751-1.216-.191-.09-.273-.283-.644-.202zm12.453 2.025c-.201-.08-.392-.169-.645-.202-.017.118-.169.11-.321.101-.385.337-.913.67-1.289.912-.037.024-.077.167-.107.203-.028.032-.185-.034-.216 0-.04.048-.089.263-.106.303-.054.13-.137.2-.106.405.342.71 1.337.278 1.717-.1.386-.48 1.218-.54 1.18-1.419-.083-.023-.124-.084-.107-.203zM5.022 17.524c.213.102.17.448.537.405.585-.19 1.052-.491 1.073-1.215-.643-.514-1.615.073-1.61.81zm10.844-1.013h-.215c-.124.12-.122.359-.108.608.335.507.951 1.438 1.717.91.134-.598-.235-.722-.43-1.01-.369-.124-.358-.608-.964-.508z" fill="#fff"/></svg>
